;FLAVOR:Marlin
;TARGET_MACHINE.NAME:Unknown
;TIME:913
;Filament used: 3.63693m
;Layer height: 0.25
;MINX:94.924
;MINY:83.876
;MINZ:0.25
;MAXX:154.657
;MAXY:115.259
;MAXZ:47.75
;Generated with Cura_SteamEngine 5.5.0-beta.1
M82 ;absolute extrusion mode
M140 S80.0 ; set bed temp
M104 S165 ; preheat hotend to 165
M109 S165 ; wait for hotend
M190 S80.0 ; wait for bed
M104 S285.0 ; set hotend temp
M109 S285.0 ; wait for hotend
START_PRINT
PURGE_BLOB
G92 E0
G92 E0
;LAYER_COUNT:191
;LAYER:0
M106 S165.8
G0 F36000 X96.525 Y91.059 Z0.25
;TYPE:SKIRT
G1 F22500 X97.272 Y90.374 E0.05267
G1 X98.128 Y89.858 E0.10461
G1 X98.658 Y89.597 E0.13532
G1 X99.283 Y89.395 E0.16945
G1 X100.222 Y89.192 E0.21938
G1 X101.245 Y89.118 E0.27268
G1 X123.415 Y87.791 E1.4269
G1 X124.642 Y87.743 E1.49071
G1 X125.338 Y87.741 E1.52688
G1 X126.203 Y87.772 E1.57186
G1 X127.103 Y87.839 E1.61876
G1 X128.517 Y88.053 E1.69308
G1 X129.348 Y88.226 E1.7372
G1 X130.218 Y88.447 E1.78385
G1 X130.953 Y88.669 E1.82375
G1 X131.73 Y88.944 E1.86658
G1 X132.435 Y89.227 E1.90606
G1 X133.06 Y89.505 E1.94161
G1 X133.89 Y89.914 E1.9897
G1 X134.619 Y90.316 E2.03296
G1 X135.245 Y90.698 E2.07107
G1 X136.25 Y91.381 E2.13422
G1 X137.005 Y91.959 E2.18364
G1 X137.95 Y92.785 E2.24886
G1 X138.915 Y93.739 E2.31938
G1 X139.434 Y94.332 E2.36034
G1 X140.143 Y95.202 E2.41866
G1 X140.68 Y95.941 E2.46613
G1 X141.025 Y96.451 E2.49813
G1 X141.445 Y97.143 E2.5402
G1 X141.718 Y97.679 E2.57146
G1 X142.077 Y98.667 E2.62609
G1 X142.223 Y99.564 E2.67332
G1 X142.199 Y100.539 E2.72401
G1 X142.089 Y101.258 E2.76181
G1 X141.887 Y101.91 E2.79728
G1 X141.536 Y102.687 E2.84159
G1 X141.16 Y103.331 E2.88034
G1 X140.791 Y103.902 E2.91567
G1 X140.14 Y104.814 E2.97391
G1 X139.188 Y105.948 E3.05085
G1 X138.608 Y106.572 E3.09513
G1 X137.825 Y107.332 E3.15183
G1 X136.663 Y108.316 E3.23097
G1 X135.579 Y109.087 E3.3001
G1 X134.846 Y109.547 E3.34507
G1 X133.524 Y110.284 E3.42373
G1 X132.388 Y110.795 E3.48846
G1 X131.742 Y111.053 E3.52461
G1 X130.905 Y111.344 E3.57066
G1 X129.952 Y111.626 E3.62231
G1 X129.322 Y111.784 E3.65607
G1 X128.186 Y112.009 E3.71625
G1 X127.294 Y112.138 E3.76309
G1 X126.512 Y112.215 E3.80393
G1 X125.612 Y112.261 E3.85076
G1 X124.656 Y112.266 E3.90044
G1 X124.116 Y112.25 E3.92852
G1 X101.077 Y110.872 E5.12797
G1 X100.383 Y110.82 E5.16414
G1 X99.556 Y110.675 E5.20777
G1 X99.012 Y110.52 E5.23717
G1 X98.063 Y110.143 E5.29024
G1 X97.071 Y109.47 E5.35253
G1 X96.349 Y108.754 E5.40538
G1 X95.797 Y107.933 E5.45679
G1 X95.412 Y107.256 E5.49726
G1 X95.108 Y106.237 E5.55253
G1 X94.956 Y105.538 E5.5897
G1 X94.925 Y104.008 E5.66923
G1 X94.924 Y95.812 E6.09517
G1 X94.95 Y94.727 E6.15157
G1 X95.098 Y93.829 E6.19887
G1 X95.332 Y92.965 E6.24539
G1 X95.811 Y92 E6.30138
G1 X96.525 Y91.059 E6.36276
G0 F36000 X96.893 Y91.4
G1 F22500 X97.574 Y90.776 E6.41076
G1 X98.349 Y90.307 E6.45784
G1 X98.879 Y90.046 E6.48854
G1 X99.433 Y89.872 E6.51872
G1 X100.258 Y89.691 E6.56262
G1 X101.275 Y89.617 E6.61561
G1 X123.435 Y88.291 E7.7693
G1 X124.643 Y88.243 E7.83213
G1 X125.32 Y88.241 E7.86731
G1 X126.166 Y88.271 E7.9113
G1 X127.066 Y88.338 E7.95821
G1 X128.415 Y88.542 E8.02911
G1 X129.225 Y88.711 E8.07211
G1 X130.073 Y88.926 E8.11757
G1 X130.808 Y89.148 E8.15748
G1 X131.544 Y89.408 E8.19804
G1 X132.232 Y89.684 E8.23657
G1 X132.839 Y89.954 E8.27109
G1 X133.669 Y90.363 E8.31918
G1 X134.359 Y90.743 E8.36011
G1 X134.964 Y91.112 E8.39694
G1 X135.969 Y91.795 E8.46009
G1 X136.701 Y92.356 E8.50802
G1 X137.599 Y93.141 E8.57
G1 X138.539 Y94.068 E8.63861
G1 X139.046 Y94.648 E8.67865
G1 X139.755 Y95.518 E8.73697
G1 X140.266 Y96.221 E8.78214
G1 X140.598 Y96.711 E8.8129
G1 X140.999 Y97.37 E8.85299
G1 X141.272 Y97.906 E8.88425
G1 X141.59 Y98.789 E8.93302
G1 X141.722 Y99.6 E8.97572
G1 X141.699 Y100.527 E9.02391
G1 X141.611 Y101.11 E9.05456
G1 X141.409 Y101.762 E9.09003
G1 X141.104 Y102.435 E9.12843
G1 X140.74 Y103.06 E9.16602
G1 X140.384 Y103.612 E9.20015
G1 X139.757 Y104.493 E9.25635
G1 X138.822 Y105.608 E9.33197
G1 X138.259 Y106.214 E9.37496
G1 X137.502 Y106.95 E9.42983
G1 X136.34 Y107.934 E9.50896
G1 X135.313 Y108.663 E9.57441
G1 X134.58 Y109.123 E9.61938
G1 X133.319 Y109.828 E9.69446
G1 X132.202 Y110.331 E9.75812
G1 X131.577 Y110.581 E9.79311
G1 X130.763 Y110.865 E9.83791
G1 X129.83 Y111.141 E9.88847
G1 X129.2 Y111.299 E9.92223
G1 X128.114 Y111.514 E9.97976
G1 X127.245 Y111.64 E10.0254
G1 X126.463 Y111.717 E10.06623
G1 X125.609 Y111.761 E10.11067
G1 X124.67 Y111.766 E10.15947
G1 X124.146 Y111.751 E10.18672
G1 X101.114 Y110.373 E11.3858
G1 X100.42 Y110.321 E11.42197
G1 X99.691 Y110.193 E11.46044
G1 X99.197 Y110.055 E11.48709
G1 X98.298 Y109.698 E11.53736
G1 X97.389 Y109.081 E11.59446
G1 X96.736 Y108.433 E11.64226
G1 X96.232 Y107.686 E11.6891
G1 X95.874 Y107.057 E11.72671
G1 X95.597 Y106.131 E11.77694
G1 X95.455 Y105.478 E11.81167
G1 X95.425 Y104.008 E11.88808
G1 X95.424 Y95.822 E12.31349
G1 X95.444 Y94.807 E12.36625
G1 X95.581 Y93.96 E12.41084
G1 X95.803 Y93.141 E12.45494
G1 X96.239 Y92.263 E12.50589
G1 X96.893 Y91.4 E12.56216
G0 F36000 X97.264 Y91.738
G1 F22500 X97.877 Y91.177 E12.60534
G1 X98.575 Y90.753 E12.64779
G1 X99.03 Y90.523 E12.67428
G1 X99.544 Y90.36 E12.7023
G1 X100.294 Y90.19 E12.74227
G1 X101.305 Y90.116 E12.79495
G1 X123.455 Y88.791 E13.94812
G1 X124.645 Y88.743 E14.01001
G1 X125.302 Y88.741 E14.04416
G1 X126.129 Y88.77 E14.08716
G1 X127.029 Y88.837 E14.13406
G1 X128.313 Y89.031 E14.20155
G1 X129.102 Y89.196 E14.24344
G1 X129.929 Y89.405 E14.28777
G1 X130.642 Y89.62 E14.32647
G1 X131.358 Y89.872 E14.36592
G1 X132.029 Y90.141 E14.40349
G1 X132.618 Y90.403 E14.43699
G1 X133.448 Y90.812 E14.48508
G1 X134.099 Y91.17 E14.52369
G1 X134.683 Y91.526 E14.55923
G1 X135.688 Y92.209 E14.62238
G1 X136.397 Y92.753 E14.66882
G1 X137.248 Y93.497 E14.72757
G1 X138.163 Y94.398 E14.7943
G1 X138.659 Y94.964 E14.83341
G1 X139.351 Y95.812 E14.89029
G1 X139.852 Y96.501 E14.93456
G1 X140.171 Y96.972 E14.96413
G1 X140.553 Y97.597 E15.00219
G1 X140.826 Y98.133 E15.03346
G1 X141.104 Y98.915 E15.07659
G1 X141.221 Y99.632 E15.11434
G1 X141.204 Y100.457 E15.15722
G1 X141.133 Y100.962 E15.18373
G1 X140.931 Y101.614 E15.2192
G1 X140.672 Y102.184 E15.25174
G1 X140.32 Y102.789 E15.28811
G1 X139.976 Y103.323 E15.32112
G1 X139.374 Y104.172 E15.37521
G1 X138.456 Y105.268 E15.44951
G1 X137.91 Y105.856 E15.49121
G1 X137.179 Y106.568 E15.54424
G1 X136.017 Y107.552 E15.62337
G1 X135.047 Y108.239 E15.68514
G1 X134.314 Y108.699 E15.73012
G1 X133.113 Y109.372 E15.80166
G1 X132.016 Y109.867 E15.86421
G1 X131.412 Y110.109 E15.89802
G1 X130.621 Y110.386 E15.94158
G1 X129.708 Y110.656 E15.99106
G1 X129.078 Y110.814 E16.02481
G1 X128.042 Y111.019 E16.0797
G1 X127.196 Y111.142 E16.12412
G1 X126.414 Y111.219 E16.16496
G1 X125.606 Y111.261 E16.20701
G1 X124.684 Y111.266 E16.25492
G1 X124.176 Y111.252 E16.28133
G1 X101.151 Y109.874 E17.48006
G1 X100.457 Y109.822 E17.51623
G1 X99.826 Y109.711 E17.54952
G1 X99.332 Y109.573 E17.57618
G1 X98.535 Y109.254 E17.62079
G1 X97.707 Y108.692 E17.6728
G1 X97.125 Y108.114 E17.71543
G1 X96.667 Y107.439 E17.75782
G1 X96.337 Y106.859 E17.7925
G1 X96.086 Y106.025 E17.83776
G1 X95.954 Y105.418 E17.87004
G1 X95.925 Y104.008 E17.94334
G1 X95.924 Y95.829 E18.36839
G1 X95.938 Y94.885 E18.41745
G1 X96.064 Y94.091 E18.45923
G1 X96.274 Y93.317 E18.50091
G1 X96.665 Y92.529 E18.54663
G1 X97.264 Y91.738 E18.59819
;MESH:3DBenchy.stl
G0 F36000 X99.12 Y93.536
G0 X99.967 Y94.361
G0 X100.145 Y94.512
;TYPE:WALL-OUTER
G1 F45000 X99.992 Y94.798 E18.61505
G1 X99.925 Y95.218 E18.63715
G1 X99.926 Y97.525 E18.75704
G1 X100.256 Y97.099 E18.78505
G1 X100.766 Y96.653 E18.82026
G1 X101.349 Y96.351 E18.85438
G1 X101.812 Y96.204 E18.87962
G1 X102.406 Y96.127 E18.91075
G1 X103.09 Y96.154 E18.94633
G1 X103.75 Y96.304 E18.9815
G1 X104.366 Y96.656 E19.01837
G1 X104.75 Y97.031 E19.04626
G1 X104.806 Y96.897 E19.05381
G1 X105.15 Y96.494 E19.08135
G1 X105.44 Y96.343 E19.09834
G1 X105.794 Y96.265 E19.11718
G1 X106.494 Y96.305 E19.15361
G1 X106.995 Y96.295 E19.17966
G1 X109.777 Y96.295 E19.32423
G1 X110.257 Y96.403 E19.3498
G1 X110.61 Y96.663 E19.37259
G1 X110.762 Y96.886 E19.38661
G1 X110.953 Y96.691 E19.4008
G1 X111.281 Y96.464 E19.42153
G1 X111.807 Y96.247 E19.4511
G1 X112.347 Y96.143 E19.47968
G1 X113.019 Y96.124 E19.51461
G1 X113.441 Y96.178 E19.53672
G1 X114.031 Y96.341 E19.56853
G1 X114.616 Y96.735 E19.60519
G1 X114.932 Y97.107 E19.63055
G1 F37313.4 X115.243 Y97.593 E19.66672
G1 X115.464 Y96.94 E19.70992
G1 F45000 X115.58 Y96.78 E19.72019
G1 X115.935 Y96.47 E19.74469
G1 X116.594 Y96.288 E19.78022
G1 X117.3 Y96.301 E19.81691
G1 X118.351 Y96.3 E19.87153
G1 X119.12 Y96.439 E19.91214
G1 X119.688 Y96.63 E19.94329
G1 X120.185 Y96.962 E19.97435
G1 X120.543 Y97.315 E20.00048
G1 X120.774 Y97.624 E20.02053
G1 X121.112 Y98.274 E20.0586
G1 X121.308 Y99.067 E20.10105
G1 X121.373 Y99.941 E20.1466
G1 X121.323 Y100.682 E20.18519
G1 X121.629 Y100.626 E20.20136
G1 X122.089 Y100.643 E20.22528
G1 X122.675 Y100.879 E20.25811
G1 X122.913 Y101.049 E20.27331
G1 X123.155 Y101.304 E20.29158
G1 X123.288 Y101.52 E20.30477
G1 X123.738 Y100.745 E20.35134
G1 X123.077 Y99.582 E20.42086
G1 X122.94 Y99.104 E20.4467
G1 X122.919 Y98.871 E20.45886
G1 X122.991 Y98.48 E20.47952
G1 X123.322 Y98.023 E20.50884
G1 X123.601 Y97.848 E20.52596
G1 X124.084 Y97.732 E20.55177
G1 X124.243 Y97.739 E20.56005
G1 X124.708 Y97.884 E20.58536
G1 X125.06 Y98.172 E20.60899
G1 X125.177 Y98.316 E20.61864
G1 X125.631 Y97.905 E20.65046
G1 X126.108 Y97.738 E20.67673
G1 X126.618 Y97.805 E20.70346
G1 X126.992 Y98.044 E20.72653
G1 X127.153 Y98.238 E20.73963
G1 X127.331 Y98.027 E20.75397
G1 X127.629 Y97.825 E20.77268
G1 X128.021 Y97.733 E20.79361
G1 X128.608 Y97.84 E20.82462
G1 X128.829 Y97.931 E20.83704
G1 X129.222 Y98.286 E20.86456
G1 X129.366 Y98.496 E20.87779
G1 X129.533 Y99.104 E20.91056
G1 X129.809 Y98.462 E20.94688
G1 X129.929 Y98.28 E20.95821
G1 X130.291 Y97.915 E20.98492
G1 X130.699 Y97.75 E21.00779
G1 X130.978 Y97.744 E21.0223
G1 X131.228 Y97.796 E21.03557
G1 X131.59 Y98.003 E21.05724
G1 X131.76 Y98.188 E21.07029
G1 X132.062 Y97.925 E21.09111
G1 X132.593 Y97.731 E21.12049
G1 X135.103 Y97.735 E21.25093
G1 X135.341 Y97.783 E21.26355
G1 F42293.2 X135.751 Y97.95 E21.28803
G1 F37251.7 X135.975 Y98.095 E21.30478
G1 F38793.1 X135.75 Y97.71 E21.33166
G1 F44291.3 X135.402 Y97.29 E21.36046
G1 F45000 X134.86 Y96.735 E21.40077
G1 X134.429 Y96.325 E21.43169
G1 X133.724 Y95.722 E21.4799
G1 X133.053 Y95.236 E21.52296
G1 X132.385 Y94.799 E21.56444
G1 X131.879 Y94.501 E21.59496
G1 X131.252 Y94.172 E21.63176
G1 X130.473 Y93.816 E21.67627
G1 X129.702 Y93.517 E21.71924
G1 X129.21 Y93.354 E21.74618
G1 X128.462 Y93.146 E21.78653
G1 X127.651 Y92.966 E21.8297
G1 X126.763 Y92.825 E21.87642
G1 X126.078 Y92.761 E21.91218
G1 X125.55 Y92.731 E21.93966
G1 X125.023 Y92.723 E21.96705
G1 X124.471 Y92.737 E21.99575
G1 X100.883 Y94.15 E23.22379
G1 X100.529 Y94.232 E23.24267
G1 X100.269 Y94.386 E23.25838
G1 X100.145 Y94.512 E23.26757
G0 F36000 X100.426 Y94.72
G0 X104.009 Y96.667
G0 X104.762 Y97.393
G0 X104.735 Y98.46
G0 X102.399 Y99.024
G0 X102.176 Y98.748
G1 F45000 X101.995 Y98.963 E23.28217
G1 X101.837 Y99.536 E23.31306
G1 X101.82 Y100.206 E23.34789
G1 X101.872 Y100.628 E23.36999
G1 X102.034 Y101.049 E23.39343
G1 X102.353 Y101.27 E23.4136
G1 X102.786 Y101.277 E23.4361
G1 X103.033 Y101.043 E23.45379
G1 X103.384 Y100.857 E23.47443
G1 X103.652 Y100.802 E23.48865
G1 X104.006 Y100.804 E23.50705
G1 X104.463 Y100.955 E23.53206
G1 X104.727 Y101.146 E23.54899
G1 X104.901 Y101.345 E23.56273
G1 X105.04 Y101.588 E23.57728
G1 X105.119 Y102.074 E23.60287
G1 X105.032 Y102.374 E23.6191
G1 X104.727 Y102.919 E23.65156
G1 X104.255 Y103.366 E23.68534
G1 X103.715 Y103.627 E23.71651
G1 X103.193 Y103.761 E23.74452
G1 X102.624 Y103.809 E23.77419
G1 X101.922 Y103.742 E23.81084
G1 X101.351 Y103.587 E23.84159
G1 X100.714 Y103.24 E23.87929
G1 X100.318 Y102.896 E23.90655
G1 X99.926 Y102.405 E23.9392
G1 X99.926 Y104.932 E24.07052
G1 X100.039 Y105.305 E24.09078
G1 X100.215 Y105.565 E24.10709
G1 X100.466 Y105.745 E24.12315
G1 X100.827 Y105.846 E24.14263
G1 X124.55 Y107.271 E25.37771
G1 X125.47 Y107.278 E25.42552
G1 X126.399 Y107.211 E25.47393
G1 X126.943 Y107.147 E25.50239
G1 F44291.3 X127.767 Y107.003 E25.54656
G1 F42452.8 X128.074 Y106.92 E25.56408
G1 F41744 X128.712 Y106.771 E25.60078
G1 F40687.2 X129.231 Y106.606 E25.63208
G1 F42056.1 X129.86 Y106.424 E25.6685
G1 F45000 X130.63 Y106.122 E25.71148
G1 X131.427 Y105.742 E25.75737
G1 X131.909 Y105.481 E25.78585
G1 X132.492 Y105.139 E25.82098
G1 X133.102 Y104.73 E25.85915
G1 X133.652 Y104.323 E25.8947
G1 X134.242 Y103.833 E25.93456
G1 X133.132 Y103.829 E25.99225
G1 X132.642 Y103.849 E26.01773
G1 X132.299 Y103.798 E26.03575
G1 X131.844 Y103.535 E26.06307
G1 X131.579 Y103.155 E26.08714
G1 X131.466 Y102.735 E26.10975
G1 X131.455 Y102.437 E26.12524
G1 X131.507 Y102.12 E26.14194
G1 X131.069 Y102.008 E26.16543
G1 X130.65 Y103.181 E26.23016
G1 X130.385 Y103.884 E26.26921
G1 X129.968 Y104.935 E26.32797
G1 X129.575 Y105.607 E26.36843
G1 F42056.1 X129.018 Y106.077 E26.40895
G1 F40687.2 X128.572 Y106.255 E26.43655
G1 F41744 X128.012 Y106.382 E26.46872
G1 F43103.4 X127.469 Y106.319 E26.49838
G1 F45000 X127.139 Y106.179 E26.51701
G1 X126.859 Y105.921 E26.5368
G1 X126.698 Y105.673 E26.55216
G1 X126.543 Y105.174 E26.57932
G1 X126.595 Y104.657 E26.60632
G1 X126.79 Y104.32 E26.62656
G1 X126.902 Y104.209 E26.63475
G1 F30612.2 X126.876 Y103.943 E26.65517
G1 X126.675 Y103.766 E26.67563
G1 F45000 X126.357 Y103.845 E26.69266
G1 X125.772 Y103.764 E26.72335
G1 X125.568 Y103.657 E26.73532
G1 X125.237 Y103.348 E26.75885
G1 X125.103 Y103.144 E26.77154
G1 X124.912 Y103.427 E26.78928
G1 X124.774 Y103.557 E26.79913
G1 X124.254 Y103.815 E26.8293
G1 X124.055 Y103.829 E26.83967
G1 X123.609 Y103.75 E26.86321
G1 X123.147 Y103.433 E26.89232
G1 X122.8 Y103.778 E26.91775
G1 X122.284 Y104.031 E26.94762
G1 X121.874 Y104.111 E26.96933
G1 X121.249 Y104.034 E27.00205
G1 X120.833 Y103.842 E27.02587
G1 X120.532 Y103.606 E27.04574
G1 X120.254 Y103.244 E27.06946
G1 X120.142 Y102.949 E27.08586
G1 X119.568 Y103.324 E27.12149
G1 X118.869 Y103.566 E27.15994
G1 X117.976 Y103.635 E27.20648
G1 X117.052 Y103.627 E27.2545
G1 X116.477 Y103.666 E27.28445
G1 X116.172 Y103.604 E27.30063
G1 X115.945 Y103.507 E27.31346
G1 X115.673 Y103.267 E27.33231
G1 X115.522 Y103.006 E27.34798
G1 X115.373 Y102.434 E27.3787
G1 X115.373 Y101.869 E27.40806
G1 X115.255 Y102.217 E27.42716
G1 X114.983 Y102.712 E27.45651
G1 X114.557 Y103.191 E27.48982
G1 X114.006 Y103.557 E27.5242
G1 X113.403 Y103.745 E27.55702
G1 X112.819 Y103.804 E27.58753
G1 X112.069 Y103.751 E27.6266
G1 X111.457 Y103.589 E27.6595
G1 X110.919 Y103.236 E27.69294
G1 X110.669 Y102.932 E27.7134
G1 X110.5 Y102.535 E27.73582
G1 X110.464 Y102.059 E27.76063
G1 X110.515 Y101.762 E27.77629
G1 X110.609 Y101.552 E27.78825
G1 X110.817 Y101.278 E27.80612
G1 X111.063 Y101.095 E27.82206
G1 X111.311 Y101.006 E27.83575
G1 X111.724 Y100.939 E27.85749
G1 X111.963 Y100.96 E27.86996
G1 X111.99 Y100.834 E27.87666
G1 X111.765 Y100.753 E27.88909
G1 X111.456 Y100.549 E27.90833
G1 X111.216 Y100.191 E27.93073
G1 X111.161 Y100.011 E27.94051
G1 X111.135 Y99.639 E27.95989
G1 X111.273 Y99.137 E27.98695
G1 X111.389 Y98.927 E27.99941
G1 X111.159 Y98.84 E28.01219
G1 X110.774 Y98.518 E28.03828
G1 X110.635 Y98.3 E28.05171
G1 X110.449 Y98.484 E28.06531
G1 X109.962 Y98.7 E28.093
G1 X109.362 Y98.764 E28.12435
G1 X108.984 Y98.752 E28.14401
G1 X108.977 Y101.493 E28.28646
G1 X109.001 Y102.379 E28.33252
G1 X108.888 Y102.878 E28.35911
G1 X108.567 Y103.353 E28.3889
